!!!!SEGMENT: pl-gd--ee-2628--006-014_stabile-annibale--il-terzo-libro-de-madrigali-a-cinque-voci-ragion-e-ben.krn
!!!cenid: 15xx:1081
!!!COM: Stabile, Annibale
!!!COM-rismID: pe30009662
!!!CDT: ~1535-1595/04
!!!CNT: Italian
!!!GTL: Il terzo libro de madrigali a cinque voci
!!!OTL: Ragion è ben
!!!OMV: 014
!!!PDT: 1585
!!!AGN:
!!!YEC: Copyright 2022 Narodowy Instytut Fryderyka Chopina (https://polishscores.org)
!!!YEM: License CC-BY-4.0 (https://creativecommons.org/licenses/by/4.0)
!!!SMS-siglum: PL-GD
!!!SMS-shelfmark: Ee 2628
!!!SMS-shelfwork: 006-014 G
!!!SMS-variant:
!!!SMS-altvar:
!!!NIFC-rismSourceID: 1001203361
!!!NIFC-rismChildID: 990060530
!!!NIFC-islandoraID: pl-gd:66139
!!!URL-pdf-islandora: https://repozytorium.nifc.pl/islandora/object/pl-gd%3A66139/datastream/PDF/view
!!!URL-scan: https://polish.musicsources.pl/pl/lokalizacje/galeria/klocki-introligatorskie/673 @EN{Scan on Polish Music Sources Website} @PL{Skany w portalu Dziedzictwo Muzyki Polskiej w otwartym dostępie}
!!!IIIF:
!!!ONB-nifc: UWAGA: Canto: s. 90-101, Tenore: s. 246-257, Basso: s. 402-413, Quinto: s. 724-735. Dla głosu Alto proszę skorzystać z https://pbc.gda.pl/dlibra/publication/87582/edition/79411/content, str. 25-48. Uwaga: utwory podzielone wg spisu treści dostępnych na końcu ksiąg – proszę sprawdzać sąsiednie tytuły. Głos Quinto proszę umieszczać wg ambitusu (może się różnić w zależności od utworu).
!!!AIN: 1 alto 1 bass 1 soprn 1 tenor 1 vox
!!!key: C
**kern	**text	**kern	**text	**kern	**text	**kern	**text	**kern	**text
*part5	*	*part4	*	*part3	*	*part2	*	*part1	*
*staff5	*	*staff4	*	*staff3	*	*staff2	*	*staff1	*
*I"BASSO	*	*I"QVINTO	*	*I"TENORE	*	*I"ALTO	*	*I"CANTO	*
*I'B	*	*I'V	*	*I'T	*	*I'A	*	*I'S	*
*ICvox	*	*ICvox	*	*ICvox	*	*ICvox	*	*ICvox	*
*Ibass	*	*Ivox	*	*Itenor	*	*Ialto	*	*Isoprn	*
*clefF4	*	*clefC4	*	*clefC4	*	*clefC3	*	*clefC1	*
*k[]	*	*k[]	*	*k[]	*	*k[]	*	*k[]	*
*C:	*	*C:	*	*C:	*	*C:	*	*C:	*
*M2/1	*	*M2/1	*	*M2/1	*	*M2/1	*	*M2/1	*
*met(C)	*	*met(C)	*	*met(C)	*	*met(C)	*	*met(C)	*
=1-	=1-	=1-	=1-	=1-	=1-	=1-	=1-	=1-	=1-
0C	RA-	0r	.	0G	RA-	0e	RA-	1r	.
.	.	.	.	.	.	.	.	1cc	RA-
=2-	=2-	=2-	=2-	=2-	=2-	=2-	=2-	=2-	=2-
1D	-gion	2r	.	1F#X	-gion	1d	-gion	1a	-gion
.	.	2d\	RA-	.	.	.	.	.	.
1GG	è	1.d	-gion	1G	è	2r	.	1b-X	è
.	.	.	.	.	.	2g\	è	.	.
=3-	=3-	=3-	=3-	=3-	=3-	=3-	=3-	=3-	=3-
1D	ben	.	.	2A/	ben	1f#X	ben	1a	ben
.	.	2d\	è	2A/	ch'al-	.	.	.	.
2D/	ch'al-	1d	ben	4A/	-cu-	1r	.	1r	.
.	.	.	.	4A/	-na	.	.	.	.
4D/	-cu-	.	.	2.d\	vol-	.	.	.	.
4D/	-na	.	.	.	.	.	.	.	.
=4-	=4-	=4-	=4-	=4-	=4-	=4-	=4-	=4-	=4-
2.G\	vol-	0r	.	.	.	2d\	ch'al-	0r	.
.	.	.	.	4c\	.	.	.	.	.
.	.	.	.	4B\	.	4d\	-cu-	.	.
4F\	.	.	.	4A\	.	4d\	-na	.	.
4E\	.	.	.	1G	.	4g\	vol-	.	.
4D\	.	.	.	.	.	4fny\	.	.	.
4C/	.	.	.	.	.	4e\	.	.	.
4BB/	.	.	.	.	.	4d\	.	.	.
*custos:AA	*	*	*	*	*	*	*	*	*
!LO:LB:g=original	!	!	!	!	!	!	!	!	!
=5-	=5-	=5-	=5-	=5-	=5-	=5-	=5-	=5-	=5-
2AA/	.	1r	.	2A/	-ta i	2c/	.	2r	.
2BB/	-ta i	.	.	2.G/	can-	2B/	-to i	2d/	ch'al-
1D	can-	2d\	ch'al-	.	.	1A	can-	4d/	-cu-
*	*	*	*	*custos:F#	*	*	*	*	*
!	!	!	!	!LO:LB:g=original	!	!	!	!	!
.	.	.	.	8F#X/	.	.	.	4d/	-na
.	.	.	.	8E/	.	.	.	.	.
.	.	4d\	-cu-	2F#X/	.	.	.	2.dd\	vol-
.	.	4d\	-na	.	.	.	.	.	.
*	*	*	*	*	*	*custos:B	*	*	*
!	!	!	!	!	!	!LO:LB:g=original	!	!	!
=6-	=6-	=6-	=6-	=6-	=6-	=6-	=6-	=6-	=6-
1GG	-ti	2.g\	vol-	1G	-ti	2B/	-ti	.	.
.	.	.	.	.	.	.	.	4cc\	.
.	.	.	.	.	.	2G/	ch'al-	4bny\	.
.	.	4f\	.	.	.	.	.	4a\	.
*	*	*	*	*	*	*	*	*custos:g	*
!	!	!	!	!	!	!	!	!LO:LB:g=original	!
1r	.	4e\	.	1r	.	4c/	-cu-	2.g\	.
.	.	4d\	.	.	.	4B/	-na	.	.
.	.	4c\	.	.	.	2.e\	vol-	.	.
.	.	4B\	.	.	.	.	.	8a\	.
.	.	.	.	.	.	.	.	8b\	.
=7-	=7-	=7-	=7-	=7-	=7-	=7-	=7-	=7-	=7-
0r	.	2A/	.	0r	.	.	.	2cc\	.
.	.	.	.	.	.	4f#X\	-ta i	.	.
*	*	*custos:G	*	*	*	*	*	*	*
!	!	!LO:LB:g=original	!	!	!	!	!	!	!
.	.	2G/	-ta i	.	.	2.g\	can-	2b\	-ta i
.	.	1d	can-	.	.	.	.	1a	can-
.	.	.	.	.	.	8f#X\	.	.	.
.	.	.	.	.	.	8e\	.	.	.
.	.	.	.	.	.	2f#X\	.	.	.
=8-	=8-	=8-	=8-	=8-	=8-	=8-	=8-	=8-	=8-
2r	.	2G/	-ti	2r	.	2g\	-ti	2g/	-ti
2D/	Pe-	2d\	Pe-	2A/	Pe-	2fny\	Pe-	4r	.
.	.	.	.	.	.	.	.	4a\	Pe-
2D/	-rò	2d\	-rò	2A/	-rò	2f\	-rò	2a\	-rò
4r	.	2f\	c'ho	4r	.	4r	.	2r	.
4D/	c'ho	.	.	4d\	c'ho	4a\	c'ho	.	.
=9-	=9-	=9-	=9-	=9-	=9-	=9-	=9-	=9-	=9-
4E\	ſo-	4e\	ſo-	4B\	ſo-	4g\	ſo-	2r	.
4C/	-ſpi-	4e\	-ſpi-	4c\	-ſpi-	4g\	-ſpi-	.	.
1D	-ra-	2d\	-ra-	2.A/	-ra-	1f	-ra-	2a\	Pe-
.	.	2d\	-to	.	.	.	.	2a\	-rò
.	.	.	.	4A/	-to	.	.	.	.
2D/	-to	2d\	Pe-	4A/	ſi	2f\	-to	4r	.
.	.	.	.	4A/	gran	.	.	4a\	c'ho
*custos:C	*	*	*	*	*	*	*	*custos:b	*
!LO:LB:g=original	!	!	!	!	!	!	!	!LO:LB:g=original	!
=10-	=10-	=10-	=10-	=10-	=10-	=10-	=10-	=10-	=10-
0r	.	2d\	-rò	2G/	tem-	4g\	ſi	4b\	ſo-
.	.	.	.	.	.	8d\	gran	4g/	-ſpi-
.	.	.	.	.	.	8e\	.	.	.
*	*	*	*	*	*	*custos:f	*	*	*
!	!	!	!	!	!	!LO:LB:g=original	!	!	!
.	.	4r	.	2D/	-po	8f\	.	4a\	-ra-
.	.	.	.	.	.	8g\	.	.	.
.	.	4d\	c'ho	.	.	2a\	.	4dd\	-to
.	.	4e\	ſo-	2r	.	.	.	4b\	ſi
.	.	4c\	-ſpi-	.	.	2g\	tem-	4cc\	gran
.	.	2d\	-ra-	4r	.	.	.	2a\	tem-
.	.	.	.	2d\	ſo-	4f\	-po	.	.
=11-	=11-	=11-	=11-	=11-	=11-	=11-	=11-	=11-	=11-
4r	.	2G/	-to	.	.	4g\	ſo-	4b\	-po
2C/	ſo-	.	.	4c\	-ſpi-	2e\	-ſpi-	2cc\	ſo-
.	.	2r	.	8c\	-ra-	.	.	.	.
.	.	.	.	8B\	.	.	.	.	.
4C/	-ſpi-	.	.	8A\	.	4e\	-ra-	4cc\	-ſpi-
.	.	.	.	8G/	.	.	.	.	.
*	*	*	*	*custos:F	*	*	*	*	*
!	!	!	!	!LO:LB:g=original	!	!	!	!	!
4D/	-ra-	4r	.	2Fny/	.	4d\	.	4a\	-ra-
4D/	-to	2d\	ſo-	.	.	4A/	-to	4dd\	-to
2BB/	ſi	.	.	1G/	-to	2r	.	8dd\	ſi
.	.	.	.	.	.	.	.	8cc\	.
.	.	4d\	-ſpi-	.	.	.	.	8b\	.
.	.	.	.	.	.	.	.	8a\	.
*	*	*custos:e	*	*	*	*	*	*	*
!	!	!LO:LB:g=original	!	!	!	!	!	!	!
=12-	=12-	=12-	=12-	=12-	=12-	=12-	=12-	=12-	=12-
1C	gran	4e\	-ra-	.	.	4r	.	4g\	.
.	.	4e\	-to	.	.	2c/	ſi	4.cc\	gran
.	.	8e\	ſi	4r	.	.	.	.	.
.	.	8d\	.	.	.	.	.	8b\	.
.	.	8c\	.	2c\	ſi	4e\	gran	8a\	.
.	.	8B\	.	.	.	.	.	8g\	.
1D	tem-	4A/	.	.	.	1.d	tem-	4f/	.
.	.	4G/	gran	4B\	gran	.	.	2g/	tem-
.	.	2A/	tem-	2A/	tem-	.	.	.	.
.	.	.	.	.	.	.	.	4f#X/	.
=13-	=13-	=13-	=13-	=13-	=13-	=13-	=13-	=13-	=13-
1GG	-po	2B\	-po	0G	-po	.	.	0g	-to
.	.	2d\	Che	.	.	2B/	-po	.	.
2r	.	2.B\	mai	.	.	1r	.	.	.
2G\	Che	.	.	.	.	.	.	.	.
.	.	4d\	non	.	.	.	.	.	.
*	*	*	*	*	*	*	*	*custos:dd	*
!	!	!	!	!	!	!	!	!LO:LB:g=original	!
=14-	=14-	=14-	=14-	=14-	=14-	=14-	=14-	=14-	=14-
2.E\	mai	2c\	in-	00r	.	1r	.	00r	.
.	.	2B\	-co-	.	.	.	.	.	.
4G\	non	.	.	.	.	.	.	.	.
2F\	in-	2A/	-min-	.	.	2r	.	.	.
2E\	-co-	2B\	-cio aſ-	.	.	2g\	Che	.	.
=15-	=15-	=15-	=15-	=15-	=15-	=15-	=15-	=15-	=15-
2C/	-min-	2c\	-ſai	.	.	2.e\	mai	.	.
2E\	-cio aſ-	2G/	per	.	.	.	.	.	.
.	.	.	.	.	.	4g\	non	.	.
2D/	-ſai	4A/	sem-	.	.	2f\	in-	.	.
.	.	4B\	.	.	.	.	.	.	.
*	*	*custos:c	*	*	*	*	*	*	*
!	!	!LO:LB:g=original	!	!	!	!	!	!	!
2C/	per	2.c\	.	.	.	2e\	-co-	.	.
*custos:G	*	*	*	*	*	*	*	*	*
!LO:LB:g=original	!	!	!	!	!	!	!	!	!
=16-	=16-	=16-	=16-	=16-	=16-	=16-	=16-	=16-	=16-
1G	tem-	.	.	1r	.	2d\	-min-	2r	.
.	.	8B\	.	.	.	.	.	.	.
.	.	8A\	.	.	.	.	.	.	.
*	*	*	*	*	*	*custos:g	*	*	*
!	!	!	!	!	!	!LO:LB:g=original	!	!	!
.	.	2B\	.	.	.	2g\	-cio aſ-	2dd\	Che
1C	-po	1c	-po	2r	.	4g\	-ſai	2.ee\	mai
.	.	.	.	.	.	4g\	per	.	.
.	.	.	.	2g\	Che	2e\	tem-	.	.
.	.	.	.	.	.	.	.	4dd\	non
=17-	=17-	=17-	=17-	=17-	=17-	=17-	=17-	=17-	=17-
00r	.	00r	.	2.e\	mai	2g\	-po	2cc\	in-
.	.	.	.	.	.	1r	.	2b\	-co-
.	.	.	.	4d\	non	.	.	.	.
.	.	.	.	2f\	in-	.	.	4.a\	-min-
.	.	.	.	.	.	.	.	8b\	.
.	.	.	.	2e\	-co-	2r	.	4cc\	.
.	.	.	.	.	.	.	.	2b\	-cio aſ-
=18-	=18-	=18-	=18-	=18-	=18-	=18-	=18-	=18-	=18-
.	.	.	.	4d\	-min-	0r	.	.	.
.	.	.	.	4d\	-cio aſ-	.	.	4a\	-ſai
.	.	.	.	8e\	-ſai	.	.	4g/	per
.	.	.	.	8d\	.	.	.	.	.
.	.	.	.	8c\	.	.	.	4.a\	tem-
.	.	.	.	8B\	.	.	.	.	.
.	.	.	.	4c\	.	.	.	.	.
.	.	.	.	.	.	.	.	8g/	.
.	.	.	.	4B\	per	.	.	4.g/	.
*	*	*	*	*custos:A	*	*	*	*	*
!	!	!	!	!LO:LB:g=original	!	!	!	!	!
.	.	.	.	2A/	tem-	.	.	.	.
.	.	.	.	.	.	.	.	8f#X/	.
.	.	.	.	.	.	.	.	4f#/	.
=19-	=19-	=19-	=19-	=19-	=19-	=19-	=19-	=19-	=19-
2r	.	2r	.	2G/	-po	2r	.	4g/	-po
.	.	.	.	.	.	.	.	4g/	Per
2D/	Per	4r	.	2A/	Per	2d\	Per	2fny/	a-
.	.	4D/	Per	.	.	.	.	.	.
2AA/	a-	2E/	a-	2A/	a-	2c/	a-	2e/	-de-
*	*	*	*	*	*	*	*	*custos:d	*
!	!	!	!	!	!	!	!	!LO:LB:g=original	!
2D/	-de-	2F#X/	-de-	2A/	-de-	2d\	-de-	4d/	-quar
.	.	.	.	.	.	.	.	4dd\	co'l-
=20-	=20-	=20-	=20-	=20-	=20-	=20-	=20-	=20-	=20-
1GG	-quar	0G	-quar	4G/	-quar	2d\	-quar	8b\	-ri-
.	.	.	.	.	.	.	.	8cc\	.
.	.	.	.	4d\	co'l-	.	.	8dd\	.
.	.	.	.	.	.	.	.	8cc\	.
.	.	.	.	8d\	-ri-	4r	.	8b\	.
.	.	.	.	8c\	.	.	.	8a\	.
.	.	.	.	8B\	.	4d\	co'l-	8g/	.
.	.	.	.	8A\	.	.	.	8f/	.
2r	.	.	.	8B\	.	8d\	-ri-	2g/	.
.	.	.	.	8c\	.	8c\	.	.	.
.	.	.	.	4.d\	.	8B/	.	.	.
.	.	.	.	.	.	8A/	.	.	.
4r	.	.	.	.	.	4B/	.	2d/	-ſo i
.	.	.	.	8c\	.	.	.	.	.
4G\	co'l	.	.	8B\	.	4G/	-ſo	.	.
.	.	.	.	8A\	.	.	.	.	.
=21-	=21-	=21-	=21-	=21-	=21-	=21-	=21-	=21-	=21-
8E\	ri-	2r	.	4.G/	.	2r	.	4e/	do-
8F\	.	.	.	.	.	.	.	.	.
8G\	.	.	.	.	.	.	.	4d/	-lor
8F\	.	.	.	8A/	.	.	.	.	.
8E\	.	2e\	co'l	4B\	.	4r	.	2g/	san-
8D\	.	.	.	.	.	.	.	.	.
8C/	.	.	.	4c\	-ſo i	4g\	col	.	.
8BB/	.	.	.	.	.	.	.	.	.
2C/	.	8c\	ri-	4c\	do-	8e\	ri-	2g/	-ti
.	.	8d\	.	.	.	8f\	.	.	.
.	.	8e\	.	4c\	-lor	8g\	.	.	.
.	.	8d\	.	.	.	8f\	.	.	.
*	*	*	*	*	*	*custos:e	*	*	*
!	!	!	!	!	!	!LO:LB:g=original	!	!	!
2C/	-ſo i	8c\	.	2e\	tan-	8e\	.	2r	.
.	.	8B\	.	.	.	8d\	.	.	.
.	.	8A\	.	.	.	8c\	.	.	.
.	.	8G/	.	.	.	8B/	.	.	.
=22-	=22-	=22-	=22-	=22-	=22-	=22-	=22-	=22-	=22-
2D/	do-	2Fny/	.	1d	-ti	2A/	.	0r	.
2BB/	-lor	2G/	-ſo i	.	.	2B/	-ſo i	.	.
*custos:AA	*	*	*	*custos:G	*	*	*	*	*
!LO:LB:g=original	!	!	!	!LO:LB:g=original	!	!	!	!	!
2AA/	tan-	2A/	do-	0r	.	2c/	do-	.	.
4BB/	.	1G/	-lor	.	.	2B/	-lor	.	.
4C/	.	.	.	.	.	.	.	.	.
*	*	*custos:F#	*	*	*	*	*	*	*
!	!	!LO:LB:g=original	!	!	!	!	!	!	!
=23-	=23-	=23-	=23-	=23-	=23-	=23-	=23-	=23-	=23-
1D	.	.	.	.	.	1A	tan-	1r	.
.	.	2F#X/	tan-	.	.	.	.	.	.
1GG	-ti	2G/	-ti	2r	.	2G/	-ti	2r	.
.	.	2B\	et	2G/	Et	2g\	Et	2dd\	Et
=24-	=24-	=24-	=24-	=24-	=24-	=24-	=24-	=24-	=24-
00r	.	2.B\	s'io	2G/	s'io	2g\	s'io	2dd\	s'io
.	.	.	.	2E/	po-	2g\	po-	2ee\	po-
.	.	4c\	po-	.	.	.	.	.	.
.	.	2A/	-teſ-	2F/	-teſ-	2.f\	-teſ-	2cc\	-teſ-
.	.	2B\	-si	2D/	-si	.	.	2dd\	-si
.	.	.	.	.	.	4f\	-si	.	.
=25-	=25-	=25-	=25-	=25-	=25-	=25-	=25-	=25-	=25-
.	.	2.c\	far	2.C/	far	4e\	far	2.ee\	far
.	.	.	.	.	.	4g\	ch'a-	.	.
.	.	.	.	.	.	2.g\	-gl'oc-	.	.
.	.	4c\	ch'a-	4C/	ch'a	.	.	4ee\	ch'a
*	*	*	*	*	*	*	*	*custos:dd	*
!	!	!	!	!	!	!	!	!LO:LB:g=original	!
.	.	4B\	-gl'oc-	4G/	gl'oc-	.	.	4dd\	gl'oc-
.	.	4e\	-chi	4G/	-chi	4g\	-chi	4b\	-chi
.	.	4.c\	ſan-	2A/	ſan-	2f#X\	ſan-	2cc\	ſan-
.	.	8d\	.	.	.	.	.	.	.
=26-	=26-	=26-	=26-	=26-	=26-	=26-	=26-	=26-	=26-
2r	.	2e\	.	2.G/	-ti	2g\	-ti	2b\	-ti
2GG/	Por-	2d\	-ti	.	.	2g\	Por-	2b\	Por-
.	.	.	.	4d\	Por-	.	.	.	.
*	*	*	*	*	*	*custos:g	*	*	*
!	!	!	!	!	!	!LO:LB:g=original	!	!	!
4.C/	-geſ-	2r	.	4.e\	-geſ-	4.g\	-geſ-	4.cc\	-geſ-
8C/	-si al-	.	.	8e\	-si al-	8g\	-si al-	8cc\	-si al-
4C/	-cun	4r	.	4e\	-cun	4g\	-cun	4cc\	-cun
4D/	di-	4D/	Por-	4d\	di-	4f#X\	di-	4a\	di-
=27-	=27-	=27-	=27-	=27-	=27-	=27-	=27-	=27-	=27-
2GG/	-let-	4.G/	-geſ-	1d	-let-	2g\	-let-	2b\	-let-
.	.	8G/	-si al-	.	.	.	.	.	.
*	*	*custos:G	*	*	*	*	*	*	*
!	!	!LO:LB:g=original	!	!	!	!	!	!	!
4GG/	-to	4G/	-cun	.	.	4g\	-to	4b\	-to
4D/	Qual-	4A/	di-	.	.	4f#X\	Qual-	4a\	Qual-
4BB/	-che	2D/	-let-	2d\	-to	4g\	-che	4b\	-che
4.BB/	dol-	.	.	.	.	2g\	dol-	2dd\	dol-
.	.	4D/	-to	4r	.	.	.	.	.
*	*	*	*	*custos:d	*	*	*	*	*
!	!	!	!	!LO:LB:g=original	!	!	!	!	!
8BB/	-ce	.	.	.	.	.	.	.	.
4C/	mio	4G/	Qual-	4e\	Qual-	4e\	-ce	8cc\	.
.	.	.	.	.	.	.	.	8b\	.
*custos:D	*	*	*	*	*	*	*	*	*
!LO:LB:g=original	!	!	!	!	!	!	!	!	!
=28-	=28-	=28-	=28-	=28-	=28-	=28-	=28-	=28-	=28-
1D	det-	4F#X/	-che	4A/	-che	2r	.	4.a\	.
.	.	4.F#/	dol-	4.d\	dol-	.	.	.	.
.	.	.	.	.	.	.	.	8b-X\	-ce
.	.	.	.	.	.	2d\	mio	4a\	mio
.	.	8F#/	-ce	8d\	-ce	.	.	.	.
.	.	4G/	mio	4B-X\	mio	.	.	2g/	det-
1D	-to	1A	det-	2A/	det-	1d	det-	.	.
.	.	.	.	.	.	.	.	8f#X/	.
.	.	.	.	.	.	.	.	8e/	.
*	*	*	*	*	*	*	*	*custos:f#	*
!	!	!	!	!	!	!	!	!LO:LB:g=original	!
.	.	.	.	4D/	-to	.	.	2f#/	.
.	.	.	.	4d\	O	.	.	.	.
=29-	=29-	=29-	=29-	=29-	=29-	=29-	=29-	=29-	=29-
2r	.	1G	-to	4Bny\	me	2d\	-to	1g	-to
.	.	.	.	4G/	be-	.	.	.	.
2G\	O	.	.	2d\	-a-	2B/	O	.	.
4E\	me	2r	.	4G/	-to	4e\	me-	2r	.
4C/	be-	.	.	2c\	ſo-	4e\	-be-	.	.
2G\	-a-	4r	.	.	.	2d\	-a-	2dd\	O
.	.	4G/	O	4B\	-pra	.	.	.	.
=30-	=30-	=30-	=30-	=30-	=30-	=30-	=30-	=30-	=30-
4C/	-to	4E/	me	2c\	gl'al-	2g\	-to	4ee\	me
2c\	ſo-	4C/	be-	.	.	.	.	4ee\	be-
.	.	2G/	-a-	2d\	-tri a-	2.g\	ſo-	2dd\	-a-
4B\	-pra	.	.	.	.	.	.	.	.
4c\	gl'al-	4C/	-to	2e\	-man-	.	.	2cc\	-to
4C/	-tri a-	2c\	ſo-	.	.	4g\	-pra	.	.
*	*	*	*	*	*	*custos:g	*	*	*
!	!	!	!	!	!	!LO:LB:g=original	!	!	!
2G\	-man-	.	.	2d\	-ti	2.g\	gl'al-	4dd\	ſo-
.	.	4B\	-pra	.	.	.	.	4dd\	-pra
*	*	*	*	*custos:G	*	*	*	*	*
!	!	!	!	!LO:LB:g=original	!	!	!	!	!
=31-	=31-	=31-	=31-	=31-	=31-	=31-	=31-	=31-	=31-
2C/	-ti	4c\	gl'al-	1r	.	.	.	4.cc\	gl'al-
.	.	4G/	-tri a-	.	.	4e\	-tri a-	.	.
.	.	.	.	.	.	.	.	8bny\	-tri a-
*	*	*custos:d	*	*	*	*	*	*	*
!	!	!LO:LB:g=original	!	!	!	!	!	!	!
2r	.	2d\	-man-	.	.	2f#X\	-man-	2a\	-man-
4r	.	2G/	-ti	4r	.	4g\	-ti	2b\	-ti
4G\	Ma	.	.	4G/	Ma	4d\	Ma	.	.
4F\	piu	2r	.	4A/	piu	4d\	piu	2r	.
4.E\	quand'-	.	.	4.c\	quand'-	4e\	quand'-	.	.
=32-	=32-	=32-	=32-	=32-	=32-	=32-	=32-	=32-	=32-
.	.	1r	.	.	.	4c/	-io	2r	.
8F\	-io	.	.	8A\	-io	.	.	.	.
4D/	di-	.	.	4B\	di-	4d\	di-	.	.
*custos:C	*	*	*	*	*	*	*	*	*
!LO:LB:g=original	!	!	!	!	!	!	!	!	!
2C/	-rò	.	.	2c\	-rò	4e\	-rò	4r	.
*	*	*	*	*	*ij	*	*ij	*	*
.	.	.	.	.	.	4g\	Ma	4g/	Ma
1r	.	2r	.	2r	.	4fny\	piu	4a\	piu
.	.	.	.	.	.	4.e\	quand'-	4.cc\	qiand'-
.	.	4r	.	4r	.	.	.	.	.
.	.	.	.	.	.	8f\	-io	8a\	-io
.	.	4G/	Ma	4g\	Ma	4d\	di-	4b\	di-
*	*	*	*	*	*	*	*	*custos:cc	*
!	!	!	!	!	!	!	!	!LO:LB:g=original	!
=33-	=33-	=33-	=33-	=33-	=33-	=33-	=33-	=33-	=33-
00r	.	4A/	piu	4f\	piu	2c\	-rò	2cc\	-rò
.	.	4.c\	quand'-	4.e\	quand'-	.	.	.	.
.	.	.	.	.	.	1r	.	2r	.
.	.	8A/	-io	8f\	-io	.	.	.	.
.	.	4B\	di-	4d\	di-	.	.	.	.
.	.	2c\	-rò	2e\	-rò	.	.	1g	ſen-
*	*	*	*	*	*Xij	*	*Xij	*	*
.	.	4r	.	2c\	ſen-	2e\	ſen-	.	.
.	.	2c\	ſen-	.	.	.	.	.	.
=34-	=34-	=34-	=34-	=34-	=34-	=34-	=34-	=34-	=34-
.	.	.	.	2A/	-Za	4e\	-Za	2a\	-Za
.	.	4c\	-Za	.	.	4f\	men-	.	.
.	.	2G/	men-	4E/	men-	2.g\	-ti-	2b\	men-
.	.	.	.	4.e\	-ti-	.	.	.	.
.	.	1A	-ti-	.	.	.	.	1cc	-ti-
.	.	.	.	8d\	.	.	.	.	.
.	.	.	.	8c\	.	8f#X\	.	.	.
.	.	.	.	8B\	.	8e\	.	.	.
*	*	*	*	*	*	*custos:f#	*	*	*
!	!	!	!	!	!	!LO:LB:g=original	!	!	!
.	.	.	.	2c\	.	2f#X\	.	.	.
*	*	*	*	*custos:D	*	*	*	*	*
!	!	!	!	!LO:LB:g=original	!	!	!	!	!
=35-	=35-	=35-	=35-	=35-	=35-	=35-	=35-	=35-	=35-
2r	.	2G/	-re	1d	-re	1g	-re	1b	-re
2G\	Don-	4r	.	.	.	.	.	.	.
.	.	4G/	Don-	.	.	.	.	.	.
2F\	-na	4A/	-na	2r	.	2r	.	1r	.
.	.	4B\	mi	.	.	.	.	.	.
*	*	*custos:c	*	*	*	*	*	*	*
!	!	!LO:LB:g=original	!	!	!	!	!	!	!
2E\	mi	4c\	pre-	4r	.	2g\	Don-	.	.
.	.	4B\	-ga	4G/	Don-	.	.	.	.
=36-	=36-	=36-	=36-	=36-	=36-	=36-	=36-	=36-	=36-
2D/	pre-	2r	.	4A/	-na	2fny\	-na	2r	.
.	.	.	.	4B\	mi	.	.	.	.
*	*	*	*ij	*	*	*	*	*	*
2C/	-ga	2e\	Don-	2c\	pre-	2e\	mi	2g/	Don-
2r	.	4d\	-na	2F/	-ga	2f\	pre-	2a\	-na
.	.	4c\	mi	.	.	.	.	.	.
*	*ij	*	*	*	*	*	*	*	*
2G\	Don-	2B\	pre-	4r	.	4d\	-ga	2b\	mi
*	*	*	*	*	*ij	*	*	*	*
.	.	.	.	4d\	Don-	4g\	Don-	.	.
=37-	=37-	=37-	=37-	=37-	=37-	=37-	=37-	=37-	=37-
2A\	-na	2A\	-ga	2c\	-na	4f\	-na	2cc\	pre-
.	.	.	.	.	.	4e\	mi	.	.
2B\	mi	4r	.	2B\	mi	4.d\	pre-	2dd\	-ga
*	*	*	*Xij	*	*	*	*	*	*
.	.	4G/	Don-	.	.	.	.	.	.
.	.	.	.	.	.	8e\	.	.	.
2c\	pre-	4.A/	-na	2A/	pre-	4f\	.	2.cc\	perch'-
.	.	.	.	.	.	4e\	-ga	.	.
.	.	8B\	mi	.	.	.	.	.	.
2C/	-ga	4c\	pre-	2G/	-ga	2r	.	.	.
.	.	4e\	-ga	.	.	.	.	4b\	-io
*	*Xij	*	*	*	*Xij	*	*	*	*
=38-	=38-	=38-	=38-	=38-	=38-	=38-	=38-	=38-	=38-
2D/	perch'-	4f\	perch'-	2F/	perch'-	4r	.	2a\	vo-
.	.	4d\	-io	.	.	4A/	perch'-	.	.
2AA/	-io	4e\	vog-	2E/	-io	2c/	-io	2a\	-glio
.	.	2e\	-lio	.	.	.	.	.	.
2BB/	vo-	.	.	4.G/	vo-	2d\	vo-	0g	di-
.	.	4.d\	di-	.	.	.	.	.	.
.	.	.	.	8F/	.	.	.	.	.
2C/	-glio	.	.	4E/	.	2e\	-glio	.	.
.	.	8c\	.	.	.	.	.	.	.
.	.	2c\	.	4C/	-glio	.	.	.	.
=39-	=39-	=39-	=39-	=39-	=39-	=39-	=39-	=39-	=39-
1GG	di-	.	.	1D	di-	1d	di-	.	.
.	.	8B\	.	.	.	.	.	.	.
.	.	8A\	.	.	.	.	.	.	.
.	.	2B\	.	.	.	.	.	.	.
!LO:N:vis=00	!	!LO:N:vis=00	!	!LO:N:vis=00	!	!LO:N:vis=00	!	!LO:N:vis=00	!
0.C	-re.	0.c	-re.	0.C	-re.	0.e	-re.	0.g	-re.
==	==	==	==	==	==	==	==	==	==
*-	*-	*-	*-	*-	*-	*-	*-	*-	*-
!!!system-decoration: [(s1,s2,s3,s4,s5)]
!!!ENC: Berenika Jozajtis
!!!END: 2022-07-12
!!!ENC: Jan Barakat
!!!END: 2022-08-03
